src/assets/images/eyes/24.svg

<svg width="32" height="32" viewBox="0 0 32 32" fill="none" xmlns="http://www.w3.org/2000/svg">
<g opacity="0.6" filter="url(#filter0_f_961_3694)">
<path fill-rule="evenodd" clip-rule="evenodd" d="M7.29289 9.79289C7.68342 9.40237 8.31658 9.40237 8.70711 9.79289L10.5 11.5858L12.2929 9.79289C12.6834 9.40237 13.3166 9.40237 13.7071 9.79289C14.0976 10.1834 14.0976 10.8166 13.7071 11.2071L11.9142 13L13.7071 14.7929C14.0976 15.1834 14.0976 15.8166 13.7071 16.2071C13.3166 16.5976 12.6834 16.5976 12.2929 16.2071L10.5 14.4142L8.70711 16.2071C8.31658 16.5976 7.68342 16.5976 7.29289 16.2071C6.90237 15.8166 6.90237 15.1834 7.29289 14.7929L9.08579 13L7.29289 11.2071C6.90237 10.8166 6.90237 10.1834 7.29289 9.79289ZM18.2929 9.79289C18.6834 9.40237 19.3166 9.40237 19.7071 9.79289L21.5 11.5858L23.2929 9.79289C23.6834 9.40237 24.3166 9.40237 24.7071 9.79289C25.0976 10.1834 25.0976 10.8166 24.7071 11.2071L22.9142 13L24.7071 14.7929C25.0976 15.1834 25.0976 15.8166 24.7071 16.2071C24.3166 16.5976 23.6834 16.5976 23.2929 16.2071L21.5 14.4142L19.7071 16.2071C19.3166 16.5976 18.6834 16.5976 18.2929 16.2071C17.9024 15.8166 17.9024 15.1834 18.2929 14.7929L20.0858 13L18.2929 11.2071C17.9024 10.8166 17.9024 10.1834 18.2929 9.79289Z" fill="#B56318"/>
</g>
<path d="M13 10L8 15" stroke="url(#paint0_linear_961_3694)" stroke-width="2" stroke-linecap="round"/>
<path d="M8 10L13 15" stroke="url(#paint1_linear_961_3694)" stroke-width="2" stroke-linecap="round"/>
<path d="M24 10L19 15" stroke="url(#paint2_linear_961_3694)" stroke-width="2" stroke-linecap="round"/>
<path d="M19 10L24 15" stroke="url(#paint3_linear_961_3694)" stroke-width="2" stroke-linecap="round"/>
<defs>
<filter id="filter0_f_961_3694" x="6" y="8.5" width="20" height="9" filterUnits="userSpaceOnUse" color-interpolation-filters="sRGB">
<feFlood flood-opacity="0" result="BackgroundImageFix"/>
<feBlend mode="normal" in="SourceGraphic" in2="BackgroundImageFix" result="shape"/>
<feGaussianBlur stdDeviation="0.5" result="effect1_foregroundBlur_961_3694"/>
</filter>
<linearGradient id="paint0_linear_961_3694" x1="11.5" y1="13.5" x2="9.5" y2="11.5" gradientUnits="userSpaceOnUse">
<stop stop-color="#4F3C43"/>
<stop offset="0.326354" stop-color="#52394E"/>
<stop offset="1" stop-color="#422E2B"/>
</linearGradient>
<linearGradient id="paint1_linear_961_3694" x1="13" y1="12.5" x2="11" y2="14.5" gradientUnits="userSpaceOnUse">
<stop stop-color="#45253E"/>
<stop offset="0.414382" stop-color="#55424C"/>
<stop offset="1" stop-color="#512756"/>
</linearGradient>
<linearGradient id="paint2_linear_961_3694" x1="22.5" y1="13.5" x2="20.5" y2="11.5" gradientUnits="userSpaceOnUse">
<stop stop-color="#4F3C43"/>
<stop offset="0.326354" stop-color="#52394E"/>
<stop offset="1" stop-color="#422E2B"/>
</linearGradient>
<linearGradient id="paint3_linear_961_3694" x1="24" y1="12.5" x2="22" y2="14.5" gradientUnits="userSpaceOnUse">
<stop stop-color="#45253E"/>
<stop offset="0.414382" stop-color="#55424C"/>
<stop offset="1" stop-color="#512756"/>
</linearGradient>
</defs>
</svg>

<svg width="32" height="32" fill="none" xmlns="http://www.w3.org/2000/svg"><g opacity=".6" filter="url(#a)"><path fill-rule="evenodd" clip-rule="evenodd" d="M7.293 9.793a1 1 0 0 1 1.414 0l1.793 1.793 1.793-1.793a1 1 0 1 1 1.414 1.414L11.914 13l1.793 1.793a1 1 0 0 1-1.414 1.414L10.5 14.414l-1.793 1.793a1 1 0 0 1-1.414-1.414L9.086 13l-1.793-1.793a1 1 0 0 1 0-1.414zm11 0a1 1 0 0 1 1.414 0l1.793 1.793 1.793-1.793a1 1 0 1 1 1.414 1.414L22.914 13l1.793 1.793a1 1 0 0 1-1.414 1.414L21.5 14.414l-1.793 1.793a1 1 0 0 1-1.414-1.414L20.086 13l-1.793-1.793a1 1 0 0 1 0-1.414z" fill="#B56318"/></g><path d="m13 10-5 5" stroke="url(#b)" stroke-width="2" stroke-linecap="round"/><path d="m8 10 5 5" stroke="url(#c)" stroke-width="2" stroke-linecap="round"/><path d="m24 10-5 5" stroke="url(#d)" stroke-width="2" stroke-linecap="round"/><path d="m19 10 5 5" stroke="url(#e)" stroke-width="2" stroke-linecap="round"/><defs><linearGradient id="b" x1="11.5" y1="13.5" x2="9.5" y2="11.5" gradientUnits="userSpaceOnUse"><stop stop-color="#4F3C43"/><stop offset=".326" stop-color="#52394E"/><stop offset="1" stop-color="#422E2B"/></linearGradient><linearGradient id="c" x1="13" y1="12.5" x2="11" y2="14.5" gradientUnits="userSpaceOnUse"><stop stop-color="#45253E"/><stop offset=".414" stop-color="#55424C"/><stop offset="1" stop-color="#512756"/></linearGradient><linearGradient id="d" x1="22.5" y1="13.5" x2="20.5" y2="11.5" gradientUnits="userSpaceOnUse"><stop stop-color="#4F3C43"/><stop offset=".326" stop-color="#52394E"/><stop offset="1" stop-color="#422E2B"/></linearGradient><linearGradient id="e" x1="24" y1="12.5" x2="22" y2="14.5" gradientUnits="userSpaceOnUse"><stop stop-color="#45253E"/><stop offset=".414" stop-color="#55424C"/><stop offset="1" stop-color="#512756"/></linearGradient><filter id="a" x="6" y="8.5" width="20" height="9" filterUnits="userSpaceOnUse" color-interpolation-filters="sRGB"><feFlood flood-opacity="0" result="BackgroundImageFix"/><feBlend in="SourceGraphic" in2="BackgroundImageFix" result="shape"/><feGaussianBlur stdDeviation=".5" result="effect1_foregroundBlur_961_3694"/></filter></defs></svg>
